svgs/sharp-light/mug.svg

<svg xmlns="http://www.w3.org/2000/svg" viewBox="0 0 576 512"><!--! Font Awesome Pro 6.4.0 by @fontawesome - https://fontawesome.com License - https://fontawesome.com/license (Commercial License) Copyright 2023 Fonticons, Inc. --><path d="M64 96V416H384V96H368 64zm352 0V256h48c44.2 0 80-35.8 80-80s-35.8-80-80-80H416zm0 192V416v32H384 64 32V416 96 64H64 368h16 32 48c61.9 0 112 50.1 112 112s-50.1 112-112 112H416z"/></svg>

<svg xmlns="http://www.w3.org/2000/svg" viewBox="0 0 576 512"><!--! Font Awesome Pro 6.6.0 by @fontawesome - https://fontawesome.com License - https://fontawesome.com/license (Commercial License) Copyright 2024 Fonticons, Inc. --><path d="M64 96l0 320 320 0 0-320-16 0L64 96zm352 0l0 160 48 0c44.2 0 80-35.8 80-80s-35.8-80-80-80l-48 0zm0 192l0 128 0 32-32 0L64 448l-32 0 0-32L32 96l0-32 32 0 304 0 16 0 32 0 48 0c61.9 0 112 50.1 112 112s-50.1 112-112 112l-48 0z"/></svg>
